packages/icons/src/save-cache-s3-ci-step.svg

<svg fill="none" viewBox="0 0 40 40" xmlns="http://www.w3.org/2000/svg"><path d="m33.9405 36.1011-5.3507 1.2736v-9.7723l5.3507 1.2459z" fill="#e05243"/><path clip-rule="evenodd" d="m27.5898 28.1024.9998-.5.006.0069v9.7582l-.006.0072-.9998-.497zm11.4099 9.275-5.205-1.262v-7.2528l5.2048-1.2602.0082.0088.0001 9.7532z" fill="#8c3123" fill-rule="evenodd"/><path d="m36.0652 29.345-2.2702.4137-2.2696-.4137 2.2667-.5942z" fill="#5e1f18"/><path d="m36.0652 35.6552-2.2702-.4165-2.2696.4165 2.2668.6327z" fill="#f2b0a9"/><g clip-rule="evenodd" fill-rule="evenodd"><path d="m31.5252 29.3449 2.2696-.5616.0184-.0057v-3.7625l-.0184-.0152-2.2696 1.135zm0 4.7622 2.2696.2889.0142-.0329.0128-3.7215-.027-.0291-2.2696.2848zm-.0003 4.7583 2.2698 1.1346.0244-.0655.009-3.6797-.0334-.0379-2.2698-.5615z" fill="#8c3123"/><path d="m36.0651 29.3449-2.2702-.5616v-3.7834l2.2702 1.135zm0 4.7622-2.2702.2889v-3.7835l2.2702.2848zm-.0002 4.7582-2.27 1.1346v-3.7831l2.27-.5614zm3.9352-10.7629-1.0002-.5v9.775l1.0002-.4998z" fill="#e05243"/><path d="m20.4015 4.45082c-.0946-.12026-.2413-.19085-.397-.19095-.1557-.00009-.3025.07031-.3972.19045l-3.1299 3.9703c-.1681.21319-.1266.51851.0926.68195.2192.16345.5331.12314.7012-.09005l2.2329-2.83244v8.91822c0 .2687.2239.4864.5001.4864s.5001-.2177.5001-.4864v-8.91518l2.2241 2.8289c.1678.2134.4817.25411.7011.09094.2194-.16318.2613-.46845.0935-.68184zm-4.0215 8.60948c.2738-.0353.4664-.2797.4301-.5461-.0362-.2663-.2876-.4536-.5614-.4183-2.0232.2604-3.7857.7289-5.0581 1.3482-.6357.3094-1.1718.6674-1.55481 1.0752-.3857.4106-.63579.8947-.63579 1.4358v13.213c0 .6988.41373 1.2969 1.0048 1.7768.5938.4821 1.4232.8944 2.4042 1.2312 1.9664.6753 4.6503 1.0838 7.591 1.0838.7003 0 1.3852-.0232 2.0486-.0675.2756-.0183.4837-.2505.4648-.5185-.019-.268-.2577-.4704-.5332-.452-.6404.0428-1.3025.0652-1.9802.0652-2.8582 0-5.4242-.3986-7.258-1.0283-.9192-.3156-1.6275-.6802-2.0963-1.0607-.4716-.3829-.6455-.7332-.6455-1.03v-4.9373l.0046.0037c.5938.4821 1.4232.8945 2.4042 1.2313 1.9664.6752 4.6503 1.0837 7.591 1.0837 2.9408 0 5.6246-.4085 7.591-1.0837.981-.3368 1.8104-.7492 2.4042-1.2313l.0046-.0037v.3259c0 .2687.2239.4864.5001.4864s.5001-.2177.5001-.4864v-8.6016c0-1.0641-.9424-1.8938-2.1421-2.4872-1.2446-.6156-2.9695-1.0843-4.9527-1.3517-.2736-.0369-.5262.1489-.5641.415-.0379.266.1531.5116.4267.5485 1.9182.2587 3.5249.7054 4.6367 1.2553 1.1566.5721 1.5953 1.1579 1.5953 1.6201 0 .2968-.1739.6471-.6455 1.03-.4688.3806-1.1771.7451-2.0963 1.0607-1.8337.6297-4.3998 1.0283-7.258 1.0283s-5.4242-.3986-7.258-1.0283c-.9192-.3156-1.6275-.6801-2.0963-1.0607-.4716-.3829-.6455-.7332-.6455-1.03 0-.2318.1041-.4923.3741-.7797.2726-.2902.6937-.5838 1.2639-.8614 1.1396-.5546 2.7841-1.0017 4.7418-1.2537zm-6.3798 9.3974v-4.7295l.0046.0037c.5938.4821 1.4232.8944 2.4042 1.2312 1.9664.6753 4.6503 1.0838 7.591 1.0838 2.9408 0 5.6246-.4085 7.591-1.0838.981-.3368 1.8104-.7491 2.4042-1.2312l.0046-.0037v4.7295c0 .2968-.1739.6472-.6455 1.03-.4688.3806-1.1771.7452-2.0963 1.0608-1.8337.6297-4.3998 1.0282-7.258 1.0282s-5.4242-.3985-7.258-1.0282c-.9192-.3156-1.6275-.6802-2.0963-1.0608-.4716-.3828-.6455-.7332-.6455-1.03zm2.5183-1.3164c0 .3342-.2786.6052-.6223.6052-.3436 0-.6222-.271-.6222-.6052s.2786-.6052.6222-.6052c.3437 0 .6223.271.6223.6052zm0 6.6869c0 .3343-.2786.6052-.6223.6052-.3436 0-.6222-.2709-.6222-.6052 0-.3342.2786-.6051.6222-.6051.3437 0 .6223.2709.6223.6051z" fill="#4f5162"/></g></svg>

<svg viewBox="0 0 40 40" fill="none" xmlns="http://www.w3.org/2000/svg">
<path d="M33.9405 36.1011L28.5898 37.3747V27.6024L33.9405 28.8483V36.1011Z" fill="#E05243"/>
<path fill-rule="evenodd" clip-rule="evenodd" d="M27.5898 28.1024L28.5896 27.6024L28.5956 27.6093V37.3675L28.5896 37.3747L27.5898 36.8777V28.1024ZM38.9997 37.3774L33.7947 36.1154V28.8626L38.9995 27.6024L39.0077 27.6112L39.0078 37.3644L38.9997 37.3774Z" fill="#8C3123"/>
<path d="M36.0652 29.345L33.795 29.7587L31.5254 29.345L33.7921 28.7508L36.0652 29.345Z" fill="#5E1F18"/>
<path d="M36.0652 35.6552L33.795 35.2387L31.5254 35.6552L33.7922 36.2879L36.0652 35.6552Z" fill="#F2B0A9"/>
<path fill-rule="evenodd" clip-rule="evenodd" d="M31.5252 29.3449L33.7948 28.7833L33.8132 28.7776V25.0151L33.7948 24.9999L31.5252 26.1349V29.3449ZM31.5252 34.1071L33.7948 34.396L33.809 34.3631L33.8218 30.6416L33.7948 30.6125L31.5252 30.8973V34.1071ZM31.5249 38.8654L33.7947 40L33.8191 39.9345L33.8281 36.2548L33.7947 36.2169L31.5249 35.6554V38.8654Z" fill="#8C3123"/>
<path fill-rule="evenodd" clip-rule="evenodd" d="M36.0651 29.3449L33.7949 28.7833V24.9999L36.0651 26.1349V29.3449ZM36.0651 34.1071L33.7949 34.396V30.6125L36.0651 30.8973V34.1071ZM36.0649 38.8653L33.7949 39.9999V36.2168L36.0649 35.6554V38.8653ZM40.0001 28.1024L38.9999 27.6024V37.3774L40.0001 36.8776V28.1024Z" fill="#E05243"/>
<path fill-rule="evenodd" clip-rule="evenodd" d="M20.4015 4.45082C20.3069 4.33056 20.1602 4.25997 20.0045 4.25987C19.8488 4.25978 19.702 4.33018 19.6073 4.45032L16.4774 8.42062C16.3093 8.63381 16.3508 8.93913 16.57 9.10257C16.7892 9.26602 17.1031 9.22571 17.2712 9.01252L19.5041 6.18008V15.0983C19.5041 15.367 19.728 15.5847 20.0042 15.5847C20.2804 15.5847 20.5043 15.367 20.5043 15.0983V6.18312L22.7284 9.01202C22.8962 9.22542 23.2101 9.26613 23.4295 9.10296C23.6489 8.93978 23.6908 8.63451 23.523 8.42112L20.4015 4.45082ZM16.38 13.0603C16.6538 13.025 16.8464 12.7806 16.8101 12.5142C16.7739 12.2479 16.5225 12.0606 16.2487 12.0959C14.2255 12.3563 12.463 12.8248 11.1906 13.4441C10.5549 13.7535 10.0188 14.1115 9.63579 14.5193C9.25009 14.9299 9 15.414 9 15.9551V29.1681C9 29.8669 9.41373 30.465 10.0048 30.9449C10.5986 31.427 11.428 31.8393 12.409 32.1761C14.3754 32.8514 17.0593 33.2599 20 33.2599C20.7003 33.2599 21.3852 33.2367 22.0486 33.1924C22.3242 33.1741 22.5323 32.9419 22.5134 32.6739C22.4944 32.4059 22.2557 32.2035 21.9802 32.2219C21.3398 32.2647 20.6777 32.2871 20 32.2871C17.1418 32.2871 14.5758 31.8885 12.742 31.2588C11.8228 30.9432 11.1145 30.5786 10.6457 30.1981C10.1741 29.8152 10.0002 29.4649 10.0002 29.1681V24.2308L10.0048 24.2345C10.5986 24.7166 11.428 25.129 12.409 25.4658C14.3754 26.141 17.0593 26.5495 20 26.5495C22.9408 26.5495 25.6246 26.141 27.591 25.4658C28.572 25.129 29.4014 24.7166 29.9952 24.2345L29.9998 24.2308V24.5567C29.9998 24.8254 30.2237 25.0431 30.4999 25.0431C30.7761 25.0431 31 24.8254 31 24.5567V15.9551C31 14.891 30.0576 14.0613 28.8579 13.4679C27.6133 12.8523 25.8884 12.3836 23.9052 12.1162C23.6316 12.0793 23.379 12.2651 23.3411 12.5312C23.3032 12.7972 23.4942 13.0428 23.7678 13.0797C25.686 13.3384 27.2927 13.7851 28.4045 14.335C29.5611 14.9071 29.9998 15.4929 29.9998 15.9551C29.9998 16.2519 29.8259 16.6022 29.3543 16.9851C28.8855 17.3657 28.1772 17.7302 27.258 18.0458C25.4243 18.6755 22.8582 19.0741 20 19.0741C17.1418 19.0741 14.5758 18.6755 12.742 18.0458C11.8228 17.7302 11.1145 17.3657 10.6457 16.9851C10.1741 16.6022 10.0002 16.2519 10.0002 15.9551C10.0002 15.7233 10.1043 15.4628 10.3743 15.1754C10.6469 14.8852 11.068 14.5916 11.6382 14.314C12.7778 13.7594 14.4223 13.3123 16.38 13.0603ZM10.0002 22.4577V17.7282L10.0048 17.7319C10.5986 18.214 11.428 18.6263 12.409 18.9631C14.3754 19.6384 17.0593 20.0469 20 20.0469C22.9408 20.0469 25.6246 19.6384 27.591 18.9631C28.572 18.6263 29.4014 18.214 29.9952 17.7319L29.9998 17.7282V22.4577C29.9998 22.7545 29.8259 23.1049 29.3543 23.4877C28.8855 23.8683 28.1772 24.2329 27.258 24.5485C25.4243 25.1782 22.8582 25.5767 20 25.5767C17.1418 25.5767 14.5758 25.1782 12.742 24.5485C11.8228 24.2329 11.1145 23.8683 10.6457 23.4877C10.1741 23.1049 10.0002 22.7545 10.0002 22.4577ZM12.5185 21.1413C12.5185 21.4755 12.2399 21.7465 11.8962 21.7465C11.5526 21.7465 11.274 21.4755 11.274 21.1413C11.274 20.8071 11.5526 20.5361 11.8962 20.5361C12.2399 20.5361 12.5185 20.8071 12.5185 21.1413ZM12.5185 27.8282C12.5185 28.1625 12.2399 28.4334 11.8962 28.4334C11.5526 28.4334 11.274 28.1625 11.274 27.8282C11.274 27.494 11.5526 27.2231 11.8962 27.2231C12.2399 27.2231 12.5185 27.494 12.5185 27.8282Z" fill="#4F5162"/>
</svg>
